assets/images/res/graph_up.svg

<svg width="56" height="48" viewBox="0 0 56 48" fill="none" xmlns="http://www.w3.org/2000/svg">
    <g filter="url(#filter0_f_976_92)">
        <ellipse cx="28.9913" cy="24.006" rx="7.91173" ry="4.58047" transform="rotate(-11 28.9913 24.006)"
            fill="url(#paint0_linear_976_92)" />
    </g>
    <path fill-rule="evenodd" clip-rule="evenodd"
        d="M16.0951 30.3366C15.6286 31.3272 14.9395 32.4318 13.8261 32.8493C13.0327 33.1469 12.3275 33.2891 11.6533 33.2498C10.966 33.2098 10.3964 32.9861 9.87517 32.6884C9.46883 32.4564 9.05223 32.1537 8.63686 31.8518C8.55104 31.7895 8.46528 31.7272 8.37967 31.6655C7.85827 31.2901 7.26686 30.8809 6.51431 30.4628C5.97984 30.1659 5.49643 30.1607 5.02175 30.3169C4.51005 30.4853 3.98821 30.8525 3.49498 31.3333C3.00904 31.8069 2.60184 32.3405 2.31254 32.7648C2.16932 32.9748 2.05833 33.1531 1.98427 33.2769C1.9473 33.3386 1.91973 33.3865 1.90213 33.4176L1.88334 33.4511L1.88005 33.4571C1.6177 33.9428 1.01108 34.1245 0.525169 33.8624C0.0391011 33.6002 -0.142369 32.9936 0.119844 32.5075L0.999949 32.9823C0.119844 32.5075 0.119678 32.5078 0.119844 32.5075L0.121523 32.5044L0.124242 32.4994L0.132775 32.4839C0.139829 32.4711 0.149612 32.4536 0.16205 32.4316C0.186916 32.3877 0.222461 32.3261 0.268108 32.2498C0.359273 32.0975 0.491474 31.8854 0.660141 31.638C0.994613 31.1475 1.48593 30.4986 2.09902 29.901C2.7048 29.3106 3.48247 28.718 4.39651 28.4172C5.34756 28.1042 6.41612 28.1203 7.48559 28.7145C8.33697 29.1875 9.00049 29.648 9.54837 30.0425C9.65341 30.1182 9.75196 30.1896 9.84515 30.2572C10.2571 30.5559 10.5645 30.7789 10.8671 30.9518C11.2072 31.146 11.4767 31.2362 11.7696 31.2532C12.0755 31.271 12.4916 31.2138 13.1239 30.9767C13.4363 30.8595 13.8388 30.4335 14.2857 29.4845C14.6668 28.6753 14.9845 27.7038 15.311 26.7055C15.3476 26.5938 15.3842 26.4817 15.4211 26.3694C15.7642 25.3251 16.1499 24.1811 16.6551 23.4293C16.9093 23.051 17.2931 22.6167 17.8622 22.4371C18.4976 22.2367 19.0976 22.4295 19.5812 22.7749C20.7863 23.6357 22.804 24.8703 25.1048 25.2771C27.3451 25.6733 29.879 25.2954 32.2928 22.8815C32.6834 22.491 33.3165 22.491 33.7071 22.8815C34.0976 23.2721 34.0976 23.9052 33.7071 24.2957C30.7744 27.2284 27.5558 27.7415 24.7565 27.2466C22.0194 26.7626 19.7115 25.3255 18.4211 24.4041C18.3932 24.4361 18.3576 24.4815 18.3151 24.5448C17.996 25.0197 17.6911 25.8677 17.3212 26.9936C17.2846 27.1049 17.2476 27.2184 17.21 27.3335C16.8912 28.3099 16.533 29.4067 16.0951 30.3366Z"
        fill="url(#paint1_linear_976_92)" />
    <defs>
        <filter id="filter0_f_976_92" x="2.29889" y="0.385437" width="53.3848" height="47.2411"
            filterUnits="userSpaceOnUse" color-interpolation-filters="sRGB">
            <feFlood flood-opacity="0" result="BackgroundImageFix" />
            <feBlend mode="normal" in="SourceGraphic" in2="BackgroundImageFix" result="shape" />
            <feGaussianBlur stdDeviation="9.43814" result="effect1_foregroundBlur_976_92" />
        </filter>
        <linearGradient id="paint0_linear_976_92" x1="29.8336" y1="31.2435" x2="34.8075" y2="23.8385"
            gradientUnits="userSpaceOnUse">
            <stop stop-color="#62CBFF" stop-opacity="0.01" />
            <stop offset="1" stop-color="#339CFE" />
        </linearGradient>
        <linearGradient id="paint1_linear_976_92" x1="20.7639" y1="20.8082" x2="13.969" y2="38.0834"
            gradientUnits="userSpaceOnUse">
            <stop stop-color="#309AFF" />
            <stop offset="0.287496" stop-color="#309AFF" />
            <stop offset="0.651175" stop-color="#5364AE" />
            <stop offset="1" stop-color="#70366B" stop-opacity="0.01" />
        </linearGradient>
    </defs>
</svg>

<svg width="56" height="48" fill="none" xmlns="http://www.w3.org/2000/svg">
    <defs>
        <linearGradient id="prefix__b" x1="29.834" y1="31.244" x2="34.807" y2="23.838" gradientUnits="userSpaceOnUse">
            <stop stop-color="#62CBFF" stop-opacity=".01" />
            <stop offset="1" stop-color="#339CFE" />
        </linearGradient>
        <linearGradient id="prefix__c" x1="20.764" y1="20.808" x2="13.969" y2="38.083" gradientUnits="userSpaceOnUse">
            <stop stop-color="#309AFF" />
            <stop offset=".287" stop-color="#309AFF" />
            <stop offset=".651" stop-color="#5364AE" />
            <stop offset="1" stop-color="#70366B" stop-opacity=".01" />
        </linearGradient>
        <filter id="prefix__a" x="2.299" y=".385" width="53.385" height="47.241" filterUnits="userSpaceOnUse"
            color-interpolation-filters="sRGB">
            <feFlood flood-opacity="0" result="BackgroundImageFix" />
            <feBlend in="SourceGraphic" in2="BackgroundImageFix" result="shape" />
            <feGaussianBlur stdDeviation="9.438" result="effect1_foregroundBlur_976_92" />
        </filter>
    </defs>
    <g filter="url(#prefix__a)">
        <ellipse cx="28.991" cy="24.006" rx="7.912" ry="4.58" transform="rotate(-11 28.991 24.006)"
            fill="url(#prefix__b)" />
    </g>
    <path fill-rule="evenodd" clip-rule="evenodd"
        d="M16.095 30.337c-.466.99-1.155 2.095-2.269 2.512-.793.298-1.498.44-2.173.4-.687-.04-1.257-.263-1.778-.56-.406-.233-.823-.535-1.238-.837l-.257-.186a18.291 18.291 0 00-1.866-1.203c-.534-.297-1.018-.302-1.492-.146-.512.168-1.034.535-1.527 1.016a9.54 9.54 0 00-1.182 1.432 10.346 10.346 0 00-.41.653l-.02.033-.003.006a1 1 0 01-1.76-.95l.88.475-.88-.474.002-.004.002-.005.009-.015a5.753 5.753 0 01.135-.234c.091-.153.223-.365.392-.612.335-.49.826-1.14 1.439-1.737.606-.59 1.383-1.183 2.298-1.484a3.76 3.76 0 013.089.297c.851.474 1.514.934 2.062 1.329l.297.214c.412.299.72.522 1.022.695.34.194.61.284.903.301.306.018.722-.04 1.354-.276.312-.117.715-.544 1.162-1.492.38-.81.699-1.781 1.025-2.78l.11-.336c.343-1.044.729-2.188 1.234-2.94.254-.378.638-.812 1.207-.992.636-.2 1.236-.008 1.72.338 1.204.86 3.222 2.095 5.523 2.502 2.24.396 4.774.018 7.188-2.396a1 1 0 011.414 1.415c-2.933 2.932-6.151 3.445-8.95 2.95-2.738-.483-5.046-1.92-6.336-2.842a1.414 1.414 0 00-.106.14c-.319.476-.624 1.324-.994 2.45l-.111.34c-.319.976-.677 2.073-1.115 3.003z"
        fill="url(#prefix__c)" />
</svg>
